X: 362
T: 2.e Le Tembourin de la Rochelle
T: le Tembourin de la Rochelle
B: Robert Landrin "Potpourri fran\,cois des contre-danse ancienne tel quil se danse chez la Reine ..." 1760 p.36 #2 dance 12 #2
S: http://memory.loc.gov/cgi-bin/query/D?musdibib:2:./temp/~ammem_EbRS:
Z: 2014 John Chambers <jc:trillian.mit.edu>
M: 2/2
L: 1/8
K: G
% - - - - - - - - - - - - - - - - - - - - - - - - -
!segno!GFGA |\
B4 AGAB | c4 BABc | d2e2 d2c2 | B2A2 GFGA |\
B4 AGAB | c4 BABc | d2G2 A2F2 | HG4 |][| "2.F."d2d2 |\
g2fe dcBA | B2G2 d2d2 |
g2fe dcBA | G4 d2d2 |\
g2fe dcBA | B2G2 d2d2 | g2fe dcBA | G4 B2B2 |\
e2d2 c2B2 | A2G2 B2B2 | e2d2 c2B2 | A4 !segno!y|]
% - - - - - - - - - - - - - - - - - - - - - - - - -

%%sep 1 1 500
%%sep 1 1 500
